X:144
T:Phroinsias'
M:3/4
L:1/8
R:Mazurka
K:G
GA|:"G"B2BAGE|DB, D2B,D|"C"EC E2CE|"G"DB, D2GA|B2BAGE|DB, D2B,D|"C"E2"D"F2D2|"G"G4GA:|!
|:"G"B2B2dB|"C"cB c2AF|"D"A2A2dc|"G"BA B2GA|B2B2dB|"C"cB c2DF|"D"A2AcBA|[1"G"G4GA:|[2"G"G6|]

